svgs/sharp-light/square-ampersand.svg

<svg xmlns="http://www.w3.org/2000/svg" viewBox="0 0 448 512"><!--! Font Awesome Pro 6.6.0 by @fontawesome - https://fontawesome.com License - https://fontawesome.com/license (Commercial License) Copyright 2024 Fonticons, Inc. --><path d="M32 64l0 384 384 0 0-384L32 64zM0 32l32 0 384 0 32 0 0 32 0 384 0 32-32 0L32 480 0 480l0-32L0 64 0 32zm144 96l16 0 96 0 16 0 0 16 0 38.8c0 21.1-10.4 40.8-27.7 52.7l-18.7 12.8 44.9 49.4 36.4-51 9.3-13 26 18.6-9.3 13-40.4 56.6 51.3 56.3 5.3 5.8-43.3 0-32.3-35.4L253 377.3l-4.8 6.7-8.2 0-16 0-96 0-16 0 0-16 0-46.8c0-21.1 10.4-40.8 27.7-52.7l37.5-25.8-16.6-18.2c-10.7-11.8-16.7-27.1-16.7-43.1l0-37.4 0-16zm59.9 96.4l22.3-15.3c8.7-6 13.9-15.8 13.9-26.4l0-22.8-64 0 0 21.4c0 8 3 15.6 8.3 21.5l19.5 21.5zM199 266.6l-41.1 28.3c-8.7 6-13.9 15.8-13.9 26.4l0 30.8 87.8 0 19.8-27.7L199 266.6z"/></svg>

<svg xmlns="http://www.w3.org/2000/svg" viewBox="0 0 448 512"><!--! Font Awesome Pro 6.4.0 by @fontawesome - https://fontawesome.com License - https://fontawesome.com/license (Commercial License) Copyright 2023 Fonticons, Inc. --><path d="M32 64V448H416V64H32zM0 32H32 416h32V64 448v32H416 32 0V448 64 32zm144 96h16 96 16v16 38.8c0 21.1-10.4 40.8-27.7 52.7l-18.7 12.8 44.9 49.4 36.4-51 9.3-13 26 18.6-9.3 13-40.4 56.6 51.3 56.3 5.3 5.8H305.8l-32.3-35.4L253 377.3l-4.8 6.7H240 224 128 112V368 321.2c0-21.1 10.4-40.8 27.7-52.7l37.5-25.8-16.6-18.2c-10.7-11.8-16.7-27.1-16.7-43.1V144 128zm59.9 96.4l22.3-15.3c8.7-6 13.9-15.8 13.9-26.4V160H176v21.4c0 8 3 15.6 8.3 21.5l19.5 21.5zM199 266.6l-41.1 28.3c-8.7 6-13.9 15.8-13.9 26.4V352h87.8l19.8-27.7L199 266.6z"/></svg>
